X:1
T:Four Leaved Shamrock, The [2]
M:4/4
L:1/8
C:Paddy O'Brien
S:Dan Cummins and Bev Buchannan
R:reel
K:D
fd~d2 edBc|dfec dBAF|DEFB ABdf|~e2df efBd|
fd~d2 edBc|dfec dBAF|DEFB ABdf|1edef d3e:|2edef d3B||
Addc defa|bfaf efdB|BAFB ABdf|eB~B2 egfe|
dBAB defa|bfaf edBA|DEFB ABdf|1edef d3B:|2edef d3e:||
